src/assets/skrepka-icon.svg

<svg width="13" height="21" viewBox="0 0 13 21" fill="none" xmlns="http://www.w3.org/2000/svg">
<path d="M12.5093 13.8184C12.5093 15.5517 11.9009 17.0267 10.6843 18.2434C9.46761 19.46 7.99261 20.0684 6.25928 20.0684C4.52594 20.0684 3.05094 19.46 1.83428 18.2434C0.617611 17.0267 0.00927734 15.5517 0.00927734 13.8184V4.56836C0.00927734 3.31836 0.446777 2.25586 1.32178 1.38086C2.19678 0.505859 3.25928 0.0683594 4.50928 0.0683594C5.75928 0.0683594 6.82178 0.505859 7.69678 1.38086C8.57178 2.25586 9.00928 3.31836 9.00928 4.56836V13.3184C9.00928 14.085 8.74261 14.735 8.20928 15.2684C7.67594 15.8017 7.02594 16.0684 6.25928 16.0684C5.49261 16.0684 4.84261 15.8017 4.30928 15.2684C3.77594 14.735 3.50928 14.085 3.50928 13.3184V4.06836H5.50928V13.3184C5.50928 13.535 5.58011 13.7142 5.72178 13.8559C5.86344 13.9975 6.04261 14.0684 6.25928 14.0684C6.47594 14.0684 6.65511 13.9975 6.79678 13.8559C6.93844 13.7142 7.00928 13.535 7.00928 13.3184V4.56836C6.99261 3.86836 6.74678 3.27669 6.27178 2.79336C5.79678 2.31003 5.20928 2.06836 4.50928 2.06836C3.80928 2.06836 3.21761 2.31003 2.73428 2.79336C2.25094 3.27669 2.00928 3.86836 2.00928 4.56836V13.8184C1.99261 15.0017 2.40094 16.0059 3.23428 16.8309C4.06761 17.6559 5.07594 18.0684 6.25928 18.0684C7.42594 18.0684 8.41761 17.6559 9.23428 16.8309C10.0509 16.0059 10.4759 15.0017 10.5093 13.8184V4.06836H12.5093V13.8184Z" fill="#9390A0"/>
</svg>

<svg width="13" height="21" fill="none" xmlns="http://www.w3.org/2000/svg"><path d="M12.51 13.818c0 1.734-.61 3.209-1.826 4.425-1.216 1.217-2.691 1.825-4.425 1.825-1.733 0-3.208-.608-4.425-1.825C.618 17.027.01 15.552.01 13.818v-9.25c0-1.25.438-2.312 1.313-3.187S3.259.068 4.509.068s2.313.438 3.188 1.313 1.312 1.937 1.312 3.187v8.75c0 .767-.266 1.417-.8 1.95-.533.534-1.183.8-1.95.8a2.654 2.654 0 01-1.95-.8 2.654 2.654 0 01-.8-1.95v-9.25h2v9.25a.729.729 0 00.75.75.729.729 0 00.75-.75v-8.75c-.016-.7-.262-1.291-.737-1.775-.475-.483-1.063-.725-1.763-.725s-1.291.242-1.775.725a2.416 2.416 0 00-.725 1.775v9.25c-.016 1.184.392 2.188 1.225 3.013.834.825 1.842 1.237 3.025 1.237 1.167 0 2.159-.412 2.975-1.237.817-.825 1.242-1.83 1.275-3.013v-9.75h2v9.75z" fill="#9390A0"/></svg>
